X:550
T: Two and Sixpenny Girl
T: Cail\'in na Leathchor\'onach
S: B.Breathnach:"Ceol Rince na hEireann" III/15
Z: B.Black
L: 1/8
M: 6/8
R: jig
K: G
GA|: BGG Add|BGG ADD|BGG ADD|GBA G/F/ED|
BGG AFF|BAG ABc|dge f2d|1 cAF G2A :|2 cAF G3 ||
GBd g2e|fed cAF|GBd g3|f/g/af g3|
f/g/af g2e|fed cAF|1 B/c/BB BAG|1 B/c/dB cBA :|2\
f/g/aa gfe|d3 dcA||
GBB B2d|cAA AFD|GBB BAG|B/c/dB cBA|
GBB B2d|cAA ABc|dge f2d|1 cAF G2G :|2 cAF G3 ||
